fs/text_field_20_regular.svg

<svg viewBox="0 0 20 20" fill="none" xmlns="http://www.w3.org/2000/svg" height="1em" width="1em">
  <path d="M10.5 7H12V7.5C12 7.77614 12.2239 8 12.5 8C12.7761 8 13 7.77614 13 7.5V6.5C13 6.22386 12.7761 6 12.5 6H7.5C7.22386 6 7 6.22386 7 6.5V7.5C7 7.77614 7.22386 8 7.5 8C7.77614 8 8 7.77614 8 7.5V7H9.5V13H9C8.72386 13 8.5 13.2239 8.5 13.5C8.5 13.7761 8.72386 14 9 14H11C11.2761 14 11.5 13.7761 11.5 13.5C11.5 13.2239 11.2761 13 11 13H10.5V7ZM2 7C2 5.34315 3.34315 4 5 4H15C16.6569 4 18 5.34315 18 7V13C18 14.6569 16.6569 16 15 16H5C3.34315 16 2 14.6569 2 13V7ZM5 5C3.89543 5 3 5.89543 3 7V13C3 14.1046 3.89543 15 5 15H15C16.1046 15 17 14.1046 17 13V7C17 5.89543 16.1046 5 15 5H5Z" fill="#212121"/>
</svg>

<svg viewBox="0 0 20 20" fill="none" xmlns="http://www.w3.org/2000/svg" height="1em" width="1em">
  <path d="M10.5 7H12v.5a.5.5 0 0 0 1 0v-1a.5.5 0 0 0-.5-.5h-5a.5.5 0 0 0-.5.5v1a.5.5 0 0 0 1 0V7h1.5v6H9a.5.5 0 0 0 0 1h2a.5.5 0 0 0 0-1h-.5V7ZM2 7a3 3 0 0 1 3-3h10a3 3 0 0 1 3 3v6a3 3 0 0 1-3 3H5a3 3 0 0 1-3-3V7Zm3-2a2 2 0 0 0-2 2v6a2 2 0 0 0 2 2h10a2 2 0 0 0 2-2V7a2 2 0 0 0-2-2H5Z" fill="#212121"/>
</svg>
